src/img/seller-5.svg

<svg width="174" height="29" viewBox="0 0 174 29" fill="none" xmlns="http://www.w3.org/2000/svg">
<g clip-path="url(#clip0_1412_894)">
<path d="M106.911 28.7209C101.971 28.6309 97.9608 25.3109 97.1308 20.5409C96.9908 19.7209 96.5208 19.7409 95.9208 19.7309C95.3008 19.7109 94.9508 19.8509 94.8308 20.5709C94.4808 22.6709 93.4608 24.5909 91.9108 26.0609C90.3608 27.5309 88.3808 28.4409 86.2608 28.6809C84.1108 28.9509 81.9308 28.5009 80.0608 27.4109C78.1908 26.3209 76.7308 24.6509 75.9008 22.6509C75.7008 22.1609 75.4508 21.6609 75.3808 21.1409C75.2708 20.2609 75.0608 19.5809 74.0808 19.2509C73.7908 19.1509 73.5008 18.4809 73.5408 18.1109C73.5808 17.7309 73.9908 17.1809 74.3208 17.1009C75.1908 16.9009 75.4608 16.3609 75.7108 15.6109C77.0208 11.6309 80.9408 8.94091 85.3108 8.98091C87.3608 9.02091 89.3408 9.69091 90.9908 10.9009C92.6408 12.1109 93.8708 13.8009 94.5108 15.7309C94.7508 16.4909 95.0408 16.9109 95.9508 16.9209C96.9108 16.9309 97.3008 16.5509 97.5808 15.6809C99.8308 8.60091 109.031 6.83091 113.951 11.9309C114.961 12.9809 115.611 14.4209 116.291 15.7409C116.601 16.3409 116.861 16.7609 117.531 17.0309C117.791 17.1409 118.021 17.3009 118.211 17.5009C118.401 17.7009 118.561 17.9409 118.661 18.2009C118.891 18.9409 118.171 19.2609 117.591 19.3909C116.821 19.5709 116.731 20.1109 116.621 20.7209C115.781 25.3009 111.511 28.8009 106.881 28.7209H106.911ZM106.691 25.9709C110.741 26.0309 114.041 22.8809 114.081 18.9209C114.111 15.0809 110.881 11.8209 106.981 11.7809C103.111 11.7409 99.8308 14.9709 99.7408 18.9109C99.6508 22.5909 102.921 25.9109 106.691 25.9709ZM85.1908 25.9709C89.0008 25.9509 92.2708 22.6909 92.2708 18.9209C92.2708 15.0709 88.9108 11.7409 85.0408 11.7909C81.1908 11.8309 77.9108 14.8309 77.9508 18.9109C77.9908 23.0709 81.2508 26.0009 85.1908 25.9809V25.9709Z" fill="white"/>
<path d="M124.21 17.7813C125.51 16.5913 126.82 15.4113 128.11 14.2113C129.71 12.7313 131.3 11.2413 132.9 9.76127C133.55 9.16127 134.39 8.91127 135.11 9.42127C135.51 9.70127 135.78 10.4313 135.75 10.9413C135.73 11.3913 135.28 11.8813 134.9 12.2313C133.43 13.6113 131.94 14.9613 130.41 16.2613C129.83 16.7613 129.87 17.1113 130.31 17.6713C132.37 20.3513 134.4 23.0713 136.43 25.7813C137.18 26.7813 137.18 27.5713 136.47 28.1813C135.78 28.7713 134.54 28.6413 133.88 27.7813C132 25.3313 130.19 22.8413 128.35 20.3613C128.05 19.9613 127.74 19.5713 127.32 19.0213C126.22 20.0413 125.15 20.9913 124.15 22.0013C123.95 22.2013 123.94 22.6313 123.94 22.9513C123.92 24.1613 123.94 25.3613 123.93 26.5713C123.93 27.9213 123.45 28.5213 122.37 28.5413C121.28 28.5613 120.77 27.9613 120.77 26.6113C120.77 19.2713 120.77 11.9313 120.77 4.59127C120.77 3.89127 120.76 3.18127 120.77 2.48127C120.8 1.47127 121.48 0.791267 122.4 0.821267C123.29 0.851267 123.92 1.48127 123.92 2.47127C123.94 7.13127 123.93 11.7913 123.94 16.4513V17.6413L124.22 17.7813H124.21Z" fill="white"/>
<path d="M150.64 19.9109C148.65 19.9109 146.67 19.9109 144.68 19.9109C143.9 19.9109 143.62 20.0909 143.84 20.9809C144.7 24.4809 147.47 25.8309 150.96 25.6309C152.43 25.5509 153.89 25.0109 155.32 24.5609C156.26 24.2709 157.05 24.3809 157.42 25.1109C157.88 26.0109 157.42 26.7209 156.7 27.0309C155.24 27.6509 153.72 28.3609 152.17 28.5209C150.28 28.7309 148.36 28.6309 146.5 28.2009C143.34 27.4309 141.37 25.2209 140.69 22.0309C139.91 18.3309 140.15 14.7709 142.71 11.6909C143.81 10.3609 145.36 9.47086 147.06 9.17086C153.82 7.87086 157.66 12.1609 158.09 17.0309C158.11 17.3009 158.14 17.5609 158.17 17.8309C158.32 19.1709 157.71 19.8609 156.37 19.8609C155.39 19.8609 154.42 19.8609 153.44 19.8609C152.5 19.8609 151.56 19.8609 150.62 19.8609V19.9209L150.64 19.9109ZM149.31 17.4309V17.5209H152.84C155.18 17.5209 155.29 17.3609 154.48 15.1409C153.68 12.9809 151.24 11.4109 149 11.6309C146.15 11.9109 144.1 13.7609 143.72 16.3409C143.61 17.1309 143.86 17.4509 144.67 17.4409C146.22 17.4109 147.77 17.4409 149.31 17.4409V17.4309Z" fill="white"/>
<path d="M44.2895 26.4212C42.5695 27.1612 40.9495 28.0912 39.2095 28.5312C37.0195 29.0812 34.7895 28.9212 32.9095 27.3712C31.1995 25.9512 30.8095 24.0212 31.1695 22.0012C31.5795 19.6912 33.2295 18.2512 35.4295 17.8112C37.6395 17.3712 39.9395 17.3812 42.2095 17.2212C42.8695 17.1712 43.5295 17.2212 44.1595 17.2212C44.5995 13.4912 42.3095 11.8212 38.6095 12.0612C37.2195 12.1512 35.8395 12.5412 34.4795 12.8612C33.3895 13.1212 32.6895 12.9612 32.3995 12.2412C32.0495 11.3812 32.4495 10.6412 33.5095 10.2112C36.4495 9.01119 39.4695 8.58119 42.5595 9.42119C45.5195 10.2212 47.3895 12.7112 47.4495 15.7912C47.5195 19.4112 47.5395 23.0212 47.5695 26.6412C47.5795 27.9012 47.0795 28.4812 45.9895 28.5112C44.8895 28.5412 44.4795 28.1212 44.3595 26.8312C44.3395 26.6412 44.2995 26.4412 44.2995 26.4312L44.2895 26.4212ZM41.6395 19.7112L41.6195 19.5412C39.8695 19.7712 38.0795 19.8612 36.3695 20.2612C34.8595 20.6212 34.1695 21.7312 34.2395 23.0312C34.3095 24.3612 35.1895 25.3912 36.6595 25.7312C39.5195 26.3912 41.8395 25.3412 43.8395 23.3812C44.0395 23.1612 44.1695 22.8912 44.2095 22.5912C44.5995 19.8612 44.4595 19.7112 41.7395 19.7112H41.6395Z" fill="white"/>
<path d="M0 15.4902C0 11.8002 0 8.11023 0 4.42023C0 2.83023 0.6 2.24023 2.19 2.24023C6.77 2.24023 11.35 2.24023 15.92 2.24023C16.75 2.24023 17.49 2.41023 17.81 3.26023C18.21 4.33023 17.52 5.20023 16.24 5.22023C13.72 5.25023 11.19 5.23023 8.67 5.23023C7.19 5.23023 5.71 5.25023 4.23 5.23023C3.51 5.22023 3.19 5.50023 3.2 6.23023C3.22 8.38023 3.23 10.5202 3.2 12.6702C3.18 13.5502 3.53 13.8402 4.39 13.8302C7.82 13.8002 11.26 13.8202 14.69 13.8302C15.34 13.8302 16.06 13.8302 16.33 14.5302C16.51 14.9802 16.62 15.6502 16.4 16.0102C16.24 16.2302 16.04 16.4102 15.81 16.5402C15.58 16.6702 15.32 16.7502 15.05 16.7802C11.58 16.8402 8.12 16.8102 4.65 16.8202C3.76333 16.8202 3.32 17.2569 3.32 18.1302C3.32 20.9502 3.32 23.7602 3.32 26.5802C3.32 27.9402 2.76 28.5602 1.59 28.5402C0.49 28.5102 0 27.8902 0 26.5602C0 22.8702 0 19.1802 0 15.4902Z" fill="white"/>
<path d="M54.6495 18.8497C54.6495 16.9397 54.6295 15.0297 54.6595 13.1197C54.6695 12.3597 54.4295 11.9897 53.6195 12.0597C53.1495 12.1097 52.6795 12.1097 52.2095 12.0397C51.8895 11.9897 51.4095 11.8297 51.3295 11.5997C51.2395 11.3397 51.4295 10.8797 51.6495 10.6397C52.1795 10.0397 52.7995 9.51969 53.3795 8.95969C54.3695 7.99969 55.3295 7.00969 56.3595 6.09969C56.6395 5.84969 57.1195 5.80969 57.4995 5.67969C57.6095 6.00969 57.7495 6.32969 57.8295 6.66969C57.8495 6.86969 57.8595 7.06969 57.8295 7.26969C57.8895 9.51969 57.3495 9.36969 60.0095 9.37969C60.7195 9.37969 61.4195 9.36969 62.1295 9.37969C63.1095 9.40969 63.5095 9.80969 63.5195 10.7097C63.5195 11.6497 62.9995 12.0297 62.1295 12.0397C60.9895 12.0597 59.8395 12.0597 58.6995 12.0397C58.0695 12.0397 57.8195 12.2697 57.8295 12.9297C57.8595 16.5497 57.8395 20.1697 57.8595 23.7997C57.8595 25.0997 58.5795 25.8597 59.9295 25.8997C60.6495 25.9297 61.3895 25.7497 62.1095 25.6097C62.9195 25.4497 63.5595 25.6797 63.8495 26.4297C64.1195 27.1497 63.7995 27.7897 63.0795 28.0697C60.7995 28.9597 58.5095 29.1297 56.3195 27.8097C55.8295 27.5297 55.4295 27.1297 55.1495 26.6397C54.8695 26.1597 54.7195 25.6097 54.7195 25.0497C54.6795 22.9697 54.7095 20.8897 54.7095 18.8197H54.6495V18.8497Z" fill="white"/>
<path d="M68.2695 14.7205C68.2695 10.7005 68.2695 6.68055 68.2695 2.66055C68.2695 1.53055 68.8595 0.850547 69.8095 0.830547C70.8695 0.810547 71.4695 1.43055 71.4695 2.64055C71.4695 10.6105 71.4695 18.5905 71.4695 26.5605C71.4695 28.0105 70.8995 28.5805 69.6695 28.5005C68.7495 28.4405 68.2795 27.8805 68.2795 26.7805C68.2795 22.7605 68.2795 18.7405 68.2795 14.7205H68.2695Z" fill="white"/>
<path d="M25.9699 14.7699C25.9699 18.8199 25.9699 22.8799 25.9699 26.9299C25.9699 27.6999 25.6399 28.3399 24.9399 28.4299C24.3599 28.4999 23.6899 28.2199 23.1299 27.9399C22.9099 27.8299 22.8099 27.2999 22.8099 26.9599C22.7899 18.8199 22.7899 10.6799 22.8099 2.53995C22.8099 1.53995 23.4599 0.829948 24.2699 0.839948C25.3799 0.859948 25.9699 1.44995 25.9699 2.60995C25.9699 6.65995 25.9699 10.7199 25.9699 14.7699Z" fill="white"/>
<path d="M166.391 12.3406C166.891 11.8106 167.241 11.4206 167.611 11.0506C168.901 9.74062 170.431 8.90062 172.321 8.89062C173.521 8.89062 174.071 9.49063 173.991 10.6306C173.931 11.4806 173.541 11.9706 172.611 12.0206C170.451 12.1306 168.501 12.7806 167.101 14.5106C166.651 15.0706 166.391 15.7506 166.341 16.4606C166.261 19.8106 166.301 23.1606 166.311 26.5106C166.311 27.4306 166.031 28.2006 165.091 28.4706C163.901 28.8206 163.001 28.0606 163.001 26.7606C162.991 22.6706 163.001 18.5906 163.001 14.5006C163.001 13.2906 162.991 12.0906 163.001 10.8806C163.011 9.88063 163.681 9.13063 164.551 9.10063C165.431 9.07063 166.111 9.76063 166.201 10.7706C166.241 11.2206 166.311 11.6806 166.381 12.3506L166.391 12.3406Z" fill="white"/>
</g>
<defs>
<clipPath id="clip0_1412_894">
<rect width="174" height="28" fill="white" transform="translate(0 0.820312)"/>
</clipPath>
</defs>
</svg>

<svg xmlns="http://www.w3.org/2000/svg" width="174" height="29" fill="none" xmlns:v="https://vecta.io/nano"><g clip-path="url(#A)" fill="#fff"><path d="M106.911 28.721c-4.94-.09-8.95-3.41-9.78-8.18-.14-.82-.61-.8-1.21-.81-.62-.02-.97.12-1.09.84-.35 2.1-1.37 4.02-2.92 5.49a9.79 9.79 0 0 1-5.65 2.62c-2.15.27-4.33-.18-6.2-1.27a9.9 9.9 0 0 1-4.16-4.76c-.2-.49-.45-.99-.52-1.51-.11-.88-.32-1.56-1.3-1.89-.29-.1-.58-.77-.54-1.14.04-.38.45-.93.78-1.01.87-.2 1.14-.74 1.39-1.49 1.31-3.98 5.23-6.67 9.6-6.63 2.05.04 4.03.71 5.68 1.92s2.88 2.9 3.52 4.83c.24.76.53 1.18 1.44 1.19.96.01 1.35-.37 1.63-1.24 2.25-7.08 11.45-8.85 16.37-3.75 1.01 1.05 1.66 2.49 2.34 3.81.31.6.57 1.02 1.24 1.29a2.02 2.02 0 0 1 .68.47c.19.2.35.44.45.7.23.74-.49 1.06-1.07 1.19-.77.18-.86.72-.97 1.33-.84 4.58-5.11 8.08-9.74 8h.03zm-.22-2.75c4.05.06 7.35-3.09 7.39-7.05.03-3.84-3.2-7.1-7.1-7.14-3.87-.04-7.15 3.19-7.24 7.13-.09 3.68 3.18 7 6.95 7.06zm-21.5 0c3.81-.02 7.08-3.28 7.08-7.05 0-3.85-3.36-7.18-7.23-7.13-3.85.04-7.13 3.04-7.09 7.12.04 4.16 3.3 7.09 7.24 7.07v-.01zm39.019-8.19l3.9-3.57 4.79-4.45c.65-.6 1.49-.85 2.21-.34.4.28.67 1.01.64 1.52-.02.45-.47.94-.85 1.29l-4.49 4.03c-.58.5-.54.85-.1 1.41l6.12 8.11c.75 1 .75 1.79.04 2.4-.69.59-1.93.46-2.59-.4l-5.53-7.42-1.03-1.34-3.17 2.98c-.2.2-.21.63-.21.95l-.01 3.62c0 1.35-.48 1.95-1.56 1.97-1.09.02-1.6-.58-1.6-1.93V4.591v-2.11c.03-1.01.71-1.69 1.63-1.66.89.03 1.52.66 1.52 1.65l.02 13.98v1.19l.28.14h-.01zm26.43 2.13h-5.96c-.78 0-1.06.18-.84 1.07.86 3.5 3.63 4.85 7.12 4.65 1.47-.08 2.93-.62 4.36-1.07.94-.29 1.73-.18 2.1.55.46.9 0 1.61-.72 1.92-1.46.62-2.98 1.33-4.53 1.49a16.9 16.9 0 0 1-5.67-.32c-3.16-.77-5.13-2.98-5.81-6.17-.78-3.7-.54-7.26 2.02-10.34a7.29 7.29 0 0 1 4.35-2.52c6.76-1.3 10.6 2.99 11.03 7.86.02.27.05.53.08.8.15 1.34-.46 2.03-1.8 2.03h-2.93-2.82v.06l.02-.01zm-1.33-2.48v.09h3.53c2.34 0 2.45-.16 1.64-2.38-.8-2.16-3.24-3.73-5.48-3.51-2.85.28-4.9 2.13-5.28 4.71-.11.79.14 1.11.95 1.1 1.55-.03 3.1 0 4.64 0v-.01zm-105.02 8.99c-1.72.74-3.34 1.67-5.08 2.11-2.19.55-4.42.39-6.3-1.16-1.71-1.42-2.1-3.35-1.74-5.37.41-2.31 2.06-3.75 4.26-4.19 2.21-.44 4.51-.43 6.78-.59.66-.05 1.32 0 1.95 0 .44-3.73-1.85-5.4-5.55-5.16-1.39.09-2.77.48-4.13.8-1.09.26-1.79.1-2.08-.62-.35-.86.05-1.6 1.11-2.03 2.94-1.2 5.96-1.63 9.05-.79 2.96.8 4.83 3.29 4.89 6.37l.12 10.85c.01 1.26-.49 1.84-1.58 1.87-1.1.03-1.51-.39-1.63-1.68l-.06-.4-.01-.01zm-2.65-6.71l-.02-.17-5.25.72c-1.51.36-2.2 1.47-2.13 2.77.07 1.33.95 2.36 2.42 2.7 2.86.66 5.18-.39 7.18-2.35a1.45 1.45 0 0 0 .37-.79c.39-2.73.25-2.88-2.47-2.88h-.1zM0 15.49V4.42c0-1.59.6-2.18 2.19-2.18h13.73c.83 0 1.57.17 1.89 1.02.4 1.07-.29 1.94-1.57 1.96l-7.57.01H4.23c-.72-.01-1.04.27-1.03 1v6.44c-.02.88.33 1.17 1.19 1.16h10.3c.65 0 1.37 0 1.64.7.18.45.29 1.12.07 1.48-.16.22-.36.4-.59.53a1.99 1.99 0 0 1-.76.24l-10.4.04c-.887 0-1.33.437-1.33 1.31v8.45c0 1.36-.56 1.98-1.73 1.96C.49 28.51 0 27.89 0 26.56V15.49zm54.65 3.36l.01-5.73c.01-.76-.23-1.13-1.04-1.06-.47.05-.94.05-1.41-.02-.32-.05-.8-.21-.88-.44-.09-.26.1-.72.32-.96.53-.6 1.15-1.12 1.73-1.68l2.98-2.86c.28-.25.76-.29 1.14-.42l.33.99a2.41 2.41 0 0 1 0 .6c.06 2.25-.48 2.1 2.18 2.11h2.12c.98.03 1.38.43 1.39 1.33 0 .94-.52 1.32-1.39 1.33H58.7c-.63 0-.88.23-.87.89l.03 10.87c0 1.3.72 2.06 2.07 2.1.72.03 1.46-.15 2.18-.29.81-.16 1.45.07 1.74.82.27.72-.05 1.36-.77 1.64-2.28.89-4.57 1.06-6.76-.26a3.13 3.13 0 0 1-1.17-1.17 3.16 3.16 0 0 1-.43-1.59l-.01-6.23h-.06v.03zm13.62-4.129V2.661c0-1.13.59-1.81 1.54-1.83 1.06-.02 1.66.6 1.66 1.81v23.92c0 1.45-.57 2.02-1.8 1.94-.92-.06-1.39-.62-1.39-1.72v-12.06h-.01zm-42.3.049v12.16c0 .77-.33 1.41-1.03 1.5-.58.07-1.25-.21-1.81-.49-.22-.11-.32-.64-.32-.98V2.54c0-1 .65-1.71 1.46-1.7 1.11.02 1.7.61 1.7 1.77v12.16zm140.421-2.429l1.22-1.29c1.29-1.31 2.82-2.15 4.71-2.16 1.2 0 1.75.6 1.67 1.74-.06.85-.45 1.34-1.38 1.39-2.16.11-4.11.76-5.51 2.49a3.5 3.5 0 0 0-.76 1.95c-.08 3.35-.04 6.7-.03 10.05 0 .92-.28 1.69-1.22 1.96-1.19.35-2.09-.41-2.09-1.71v-12.26-3.62c.01-1 .68-1.75 1.55-1.78.88-.03 1.56.66 1.65 1.67.04.45.11.91.18 1.58l.01-.01z"/></g><defs><clipPath id="A"><path fill="#fff" transform="translate(0 .82)" d="M0 0h174v28H0z"/></clipPath></defs></svg>
